packages/kaspersky-hexa-ui-icons/src/iconsSVGs/16/Linux.svg

<svg width="16" height="16" viewBox="0 0 16 16" fill="none" xmlns="http://www.w3.org/2000/svg">
<path fill-rule="evenodd" clip-rule="evenodd" d="M13.6075 12.2408C13.1969 12.0727 13.0213 11.8496 13.0383 11.5166C13.0558 11.128 12.8353 10.8434 12.7306 10.7309C12.7939 10.4893 12.9787 9.65343 12.7308 8.9274C12.4644 8.15028 11.651 6.9634 10.8117 5.79671C10.4682 5.31758 10.4519 4.79678 10.4331 4.19372L10.4331 4.1931C10.4151 3.61805 10.3947 2.96627 10.0741 2.24174C9.72532 1.45255 9.0255 1 8.15396 1C7.6355 1 7.10331 1.16203 6.69377 1.44451C5.85515 2.02329 5.966 3.28518 6.03935 4.12018C6.0494 4.23452 6.05886 4.34253 6.06437 4.43475C6.1132 5.25254 6.06877 5.68356 6.01066 5.81456C5.97318 5.8999 5.78916 6.14228 5.59398 6.39935L5.59127 6.40292C5.38891 6.66942 5.15965 6.97137 4.97167 7.25276C4.74709 7.59182 4.56578 8.11005 4.39045 8.61122L4.3904 8.61136C4.26211 8.9781 4.14093 9.32451 4.02297 9.53152C3.79938 9.92976 3.85501 10.3011 3.90147 10.4727C3.81682 10.5315 3.69454 10.6473 3.59131 10.8655C3.46654 11.1318 3.2134 11.2748 2.68699 11.376C2.44509 11.4255 2.27828 11.5272 2.19107 11.6784C2.06415 11.8983 2.13328 12.1746 2.19635 12.3634C2.28953 12.6411 2.23146 12.8168 2.12589 13.1358L2.12463 13.1396C2.10061 13.2123 2.07349 13.2943 2.04602 13.3847C2.002 13.5298 2.01788 13.6617 2.09311 13.7768C2.29191 14.0807 2.87202 14.1879 3.46921 14.2584C3.82577 14.3007 4.21603 14.4433 4.59348 14.5813L4.59399 14.5815C4.96367 14.7166 5.34588 14.8563 5.69334 14.8987C5.74617 14.9053 5.7985 14.9087 5.84895 14.9087C6.37379 14.9087 6.61092 14.5604 6.68611 14.4173C6.87463 14.3789 7.52483 14.2557 8.19495 14.2391C8.86402 14.22 9.51137 14.3521 9.69475 14.3932C9.7524 14.5036 9.90438 14.7556 10.1467 14.8855C10.2798 14.9583 10.4651 15 10.6549 15H10.655C10.8577 15 11.2433 14.9521 11.5485 14.631C11.8529 14.3084 12.6135 13.8966 13.1689 13.5959C13.2929 13.5288 13.4088 13.466 13.5105 13.4093C13.8225 13.2363 13.9927 12.9892 13.9775 12.7313C13.9649 12.517 13.8231 12.3291 13.6075 12.2408ZM6.70061 12.1787C6.66178 11.9052 6.30985 11.6338 5.90229 11.3197L5.90201 11.3195C5.56883 11.0626 5.19128 10.7715 5.08725 10.525C4.8722 10.0163 5.04172 9.12189 5.33728 8.66131C5.48327 8.4308 5.60253 8.08129 5.71788 7.74322L5.71803 7.74277C5.84261 7.37757 5.97146 6.99998 6.11555 6.83469C6.34372 6.57663 6.5546 6.07451 6.59196 5.67879C6.80564 5.88277 7.13709 6.14161 7.44331 6.14161C7.49045 6.14161 7.53621 6.13546 7.57996 6.12312C7.78923 6.06268 8.09695 5.88494 8.39465 5.71297L8.39468 5.71296L8.39559 5.71243C8.6525 5.56398 8.96932 5.38093 9.08852 5.36426C9.29292 5.65776 10.4806 8.28615 10.602 9.13024C10.698 9.79812 10.5966 10.3502 10.5456 10.5665C10.5046 10.5609 10.4556 10.5563 10.4042 10.5563C10.0734 10.5563 9.98581 10.7369 9.963 10.8447C9.90434 11.1249 9.89814 12.0206 9.8975 12.2219C9.77788 12.3739 9.17294 13.0896 8.30443 13.2183C7.95066 13.2697 7.6203 13.2958 7.32258 13.2958C7.0681 13.2958 6.9057 13.2761 6.83827 13.2659L6.40184 12.7665C6.57392 12.6815 6.74596 12.5022 6.70061 12.1787ZM8.76124 4.90534C8.75688 4.9248 8.74761 4.93343 8.64506 4.98677C8.59329 5.01371 8.52884 5.04727 8.44819 5.09638L8.39321 5.12968C8.17603 5.26133 7.67043 5.56782 7.533 5.58583C7.4395 5.59841 7.38166 5.56215 7.25162 5.47379C7.22229 5.45382 7.19107 5.43261 7.1578 5.41127C6.92337 5.25745 6.77259 5.08803 6.75556 5.02179C6.83198 4.96271 7.02142 4.81486 7.11841 4.72733C7.31528 4.54427 7.5134 4.42126 7.61144 4.42126C7.61663 4.42126 7.62131 4.42162 7.62618 4.42254C7.74115 4.44283 8.02438 4.55582 8.23184 4.63859L8.23314 4.63911C8.32907 4.67739 8.41193 4.71044 8.47022 4.73137C8.65388 4.79444 8.74963 4.87513 8.76124 4.90534ZM10.4113 13.4601C10.5149 12.9928 10.6342 12.357 10.6149 11.9822C10.6104 11.8971 10.6029 11.8044 10.5956 11.7148C10.582 11.5473 10.5617 11.2982 10.5826 11.2244C10.5868 11.2225 10.5914 11.2208 10.5964 11.2194C10.5973 11.4337 10.6439 11.861 10.9857 12.0101C11.0875 12.0545 11.2039 12.077 11.3316 12.077C11.674 12.077 12.0539 11.9091 12.2095 11.7534C12.3011 11.6618 12.3782 11.5497 12.4322 11.461C12.444 11.4955 12.4512 11.5407 12.4474 11.5989C12.4271 11.9149 12.5807 12.3342 12.873 12.4887L12.9155 12.5111C13.0196 12.5657 13.2961 12.7109 13.3006 12.7797C13.3006 12.7797 13.2982 12.7878 13.2828 12.8022C13.2136 12.8654 12.9701 12.9898 12.7345 13.1101L12.7345 13.1101L12.734 13.1104C12.3158 13.3239 11.8418 13.5659 11.6289 13.7898C11.3291 14.1053 10.9901 14.3172 10.7854 14.3172C10.7607 14.3172 10.7383 14.314 10.7183 14.3077C10.496 14.2384 10.313 13.9176 10.4113 13.4601ZM2.83236 12.2679L2.83236 12.2678C2.80969 12.1617 2.79179 12.078 2.81102 11.9968C2.82497 11.9367 3.12182 11.8722 3.2486 11.8447L3.24907 11.8446C3.42716 11.806 3.61129 11.766 3.73172 11.6929C3.89472 11.5942 3.98299 11.4121 4.06084 11.2514L4.0611 11.2509C4.11739 11.1349 4.17552 11.0151 4.24467 10.9757C4.24858 10.9734 4.25454 10.9707 4.26593 10.9707C4.39569 10.9707 4.66798 11.2435 4.82487 11.4877C4.86467 11.5492 4.93839 11.6726 5.02368 11.8154L5.02483 11.8173C5.2798 12.2439 5.62829 12.827 5.81044 13.0226C5.97481 13.1988 6.2409 13.5374 6.17545 13.8278C6.12753 14.0531 5.8724 14.2364 5.81223 14.2769C5.79038 14.2819 5.76334 14.2844 5.73153 14.2844C5.3824 14.2844 4.6913 13.9939 4.32 13.8379L4.26505 13.8148C4.05777 13.7279 3.71942 13.6731 3.39218 13.6201L3.39191 13.6201L3.39065 13.6199L3.39061 13.6199C3.13028 13.5777 2.7747 13.5201 2.71568 13.4681C2.66778 13.4143 2.7233 13.2397 2.77231 13.0856L2.77237 13.0854C2.80767 12.9746 2.84411 12.86 2.86408 12.7401C2.89237 12.5489 2.85915 12.3933 2.83245 12.2683L2.83236 12.2679ZM9.0593 3.91016C9.06054 4.06247 9.03423 4.1922 8.97645 4.3246C8.94354 4.40009 8.90565 4.46352 8.86011 4.51843C8.84471 4.51106 8.82873 4.50398 8.81218 4.49719C8.75459 4.4726 8.70379 4.45232 8.65816 4.4351C8.62381 4.42214 8.59515 4.41232 8.56745 4.40283L8.56732 4.40279C8.55826 4.39968 8.54931 4.39662 8.54029 4.39349C8.54873 4.38328 8.55977 4.3725 8.57153 4.36101C8.5968 4.33632 8.62541 4.30836 8.63874 4.27591C8.6683 4.20416 8.68274 4.13413 8.68552 4.05061C8.68552 4.049 8.68576 4.0475 8.68601 4.04594C8.68629 4.04426 8.68657 4.0425 8.68657 4.04047C8.68829 3.96049 8.67767 3.89208 8.65433 3.82205C8.62984 3.74848 8.59875 3.69567 8.55369 3.65167C8.50863 3.60775 8.46357 3.58785 8.40951 3.58604C8.40693 3.58585 8.40454 3.58585 8.40197 3.58585C8.35126 3.58604 8.30715 3.60354 8.26161 3.64162C8.21368 3.68161 8.17818 3.73279 8.14862 3.80407C8.11916 3.87534 8.10471 3.94595 8.10184 4.02994C8.10136 4.0332 8.10136 4.03607 8.10136 4.03941C8.10031 4.08562 8.10337 4.12791 8.11045 4.16895C8.00655 4.11719 7.87367 4.0794 7.78183 4.0575C7.77656 4.01779 7.7736 3.97694 7.77264 3.93399V3.92241C7.77102 3.77049 7.79589 3.64019 7.85434 3.50797C7.9128 3.37556 7.98503 3.28037 8.08682 3.20298C8.18871 3.12568 8.28887 3.09018 8.40741 3.08894H8.41296C8.52891 3.08894 8.62812 3.12309 8.73 3.19695C8.83342 3.27215 8.90804 3.366 8.96812 3.49735C9.02706 3.62545 9.05538 3.75059 9.05825 3.89897C9.05825 3.90289 9.05825 3.90624 9.0593 3.91016ZM7.26201 4.07597C7.27665 4.0709 7.29148 4.06631 7.30669 4.06191C7.31109 4.01158 7.31157 3.95964 7.30803 3.90453V3.90348C7.30076 3.77212 7.27474 3.66086 7.22566 3.5496C7.17668 3.43833 7.11822 3.35941 7.04102 3.2976C6.96975 3.24068 6.90086 3.21504 6.82375 3.21485C6.81725 3.21485 6.81074 3.21504 6.80414 3.21533C6.7189 3.21973 6.6483 3.25474 6.57817 3.32439C6.50795 3.39385 6.45964 3.47832 6.42347 3.59523C6.38741 3.71204 6.37449 3.82503 6.38176 3.95638V3.95743C6.38961 4.08879 6.41572 4.20005 6.46471 4.31112C6.50604 4.40526 6.5533 4.47644 6.61386 4.53327C6.6416 4.5127 6.66542 4.49519 6.68551 4.48055C6.70717 4.46475 6.72602 4.44995 6.74805 4.43265C6.75803 4.42481 6.76867 4.41646 6.78051 4.40727C6.77458 4.40306 6.76855 4.39828 6.76233 4.39292C6.7256 4.36125 6.69718 4.32002 6.67279 4.26224C6.64897 4.20608 6.63548 4.1505 6.62888 4.08362C6.62888 4.08224 6.62871 4.08099 6.62854 4.07975C6.62837 4.0785 6.62821 4.07726 6.62821 4.07587C6.62218 4.0069 6.62601 3.94682 6.64045 3.88568C6.65499 3.82436 6.67499 3.77815 6.70551 3.74103C6.73622 3.70372 6.76855 3.68468 6.80749 3.68133C6.81103 3.68105 6.81467 3.68095 6.81821 3.68095C6.85284 3.68057 6.88431 3.69387 6.91751 3.72257C6.95415 3.75433 6.98209 3.79556 7.00706 3.85392C7.0304 3.91008 7.04446 3.96566 7.05116 4.03196C7.05116 4.03464 7.05116 4.03694 7.05154 4.03961C7.05642 4.08965 7.05556 4.13433 7.04934 4.17843C7.11306 4.13624 7.17897 4.10467 7.26201 4.07597Z" fill="black"/>
</svg>

<svg xmlns="http://www.w3.org/2000/svg" width="16" height="16" fill="none" viewBox="0 0 16 16"><path fill="#000" fill-rule="evenodd" d="M13.6075 12.2408c-.4106-.1681-.5862-.3912-.5692-.7242.0175-.3886-.203-.6732-.3077-.7857.0633-.2416.2481-1.0775.0002-1.8035-.2664-.7771-1.0798-1.964-1.9191-3.1307-.3435-.4791-.3598-1-.3786-1.603v-.0006c-.018-.575-.0384-1.2268-.359-1.9514C9.7253 1.4526 9.0255 1 8.154 1c-.5185 0-1.0507.162-1.4602.4445-.8387.5788-.7278 1.8407-.6545 2.6757.0101.1143.0196.2223.025.3146.0489.8177.0045 1.2488-.0536 1.3798-.0375.0853-.2215.3277-.4167.5847l-.0027.0036c-.2024.2665-.4317.5685-.6196.8499-.2246.339-.406.8572-.5812 1.3584l-.0001.0002c-.1283.3667-.2495.7131-.3674.9201a1.253 1.253 0 0 0-.1215.9412c-.0847.0588-.207.1746-.3102.3928-.1248.2663-.3779.4093-.9043.5105-.242.0495-.4087.1512-.496.3024-.1268.2199-.0577.4962.0053.685.0932.2777.0352.4534-.0704.7724l-.0013.0038c-.024.0727-.0511.1547-.0786.2451-.044.1451-.0281.277.0471.3921.1988.3039.779.4111 1.3761.4816.3566.0423.7468.1849 1.1243.3229l.0005.0002c.3697.1351.7519.2748 1.0993.3172.0529.0066.1052.01.1557.01.5248 0 .762-.3483.8371-.4914.1885-.0384.8387-.1616 1.5089-.1782.669-.0191 1.3164.113 1.4998.1541.0576.1104.2096.3624.4519.4923.1331.0728.3184.1145.5082.1145h.0001c.2027 0 .5883-.0479.8935-.369.3044-.3226 1.065-.7344 1.6204-1.0351.124-.0671.2399-.1299.3416-.1866.312-.173.4822-.4201.467-.678-.0126-.2143-.1544-.4022-.37-.4905m-6.9069-.0621c-.0388-.2735-.3907-.5449-.7983-.859l-.0003-.0002c-.3332-.2569-.7107-.548-.8148-.7945-.215-.5087-.0455-1.4031.25-1.8637.146-.2305.2653-.58.3807-.918l.0001-.0005c.1246-.3652.2535-.7428.3975-.9081.2282-.258.4391-.7602.4765-1.156.2136.204.545.463.8513.463A.5.5 0 0 0 7.58 6.123c.2092-.0604.517-.2382.8147-.4101l.0009-.0006c.2569-.1484.5737-.3315.693-.3481.2043.2935 1.392 2.9218 1.5134 3.766.096.6678-.0054 1.2199-.0564 1.4362a1.1 1.1 0 0 0-.1414-.0102c-.3308 0-.4184.1806-.4412.2884-.0587.2802-.0649 1.1759-.0655 1.3772-.1196.152-.7246.8677-1.593.9964-.3538.0514-.6842.0775-.982.0775-.2544 0-.4168-.0197-.4842-.0299l-.4365-.4994c.1721-.085.3442-.2643.2988-.5878m2.0606-7.2734c-.0043.0195-.0136.0281-.1161.0815a3 3 0 0 0-.197.1096l-.0549.0333c-.2172.1316-.7228.4381-.8602.4561-.0935.0126-.1513-.0236-.2814-.112a4 4 0 0 0-.0938-.0625c-.2344-.1538-.3852-.3233-.4022-.3895.0764-.059.2658-.207.3628-.2945.1969-.183.395-.306.493-.306a.1.1 0 0 1 .0148.0012c.115.0203.3982.1333.6056.216l.0013.0006c.096.0383.1788.0713.2371.0923.1837.063.2794.1437.291.174m1.6501 8.5548c.1036-.4673.2229-1.1031.2036-1.4779a10 10 0 0 0-.0193-.2674c-.0136-.1675-.0339-.4166-.013-.4904a.1.1 0 0 1 .0138-.005c.0009.2143.0475.6416.3893.7907.1018.0444.2182.0669.3459.0669.3424 0 .7223-.1679.8779-.3236.0916-.0916.1687-.2037.2227-.2924.0118.0345.019.0797.0152.1379-.0203.316.1333.7353.4256.8898l.0425.0224c.1041.0546.3806.1998.3851.2686 0 0-.0024.0081-.0178.0225-.0692.0632-.3127.1876-.5483.3079l-.0005.0003c-.4182.2135-.8922.4555-1.1051.6794-.2998.3155-.6388.5274-.8435.5274a.22.22 0 0 1-.0671-.0095c-.2223-.0693-.4053-.3901-.307-.8476m-7.579-1.1922c-.0226-.1061-.0405-.1898-.0213-.271.014-.0601.3108-.1246.4376-.1521l.0005-.0001c.178-.0386.3622-.0786.4826-.1517.163-.0987.2513-.2808.3291-.4415l.0003-.0005c.0563-.116.1144-.2358.1836-.2752a.04.04 0 0 1 .0212-.005c.1298 0 .402.2728.559.517.0398.0615.1135.1849.1988.3277l.0011.0019c.255.4266.6035 1.0097.7856 1.2053.1644.1762.4305.5148.365.8052-.0479.2253-.303.4086-.3632.4491a.37.37 0 0 1-.0807.0075c-.3491 0-1.0402-.2905-1.4115-.4465l-.055-.0231c-.2072-.0869-.5456-.1417-.8728-.1947h-.0003l-.0013-.0002c-.2603-.0422-.6159-.0998-.675-.1518-.0478-.0538.0077-.2284.0567-.3825v-.0002c.0354-.1108.0718-.2254.0918-.3453.0283-.1912-.005-.3468-.0316-.4718zm6.227-8.3577c.0012.1523-.025.282-.0829.4144-.0329.0755-.0708.139-.1163.1938a1 1 0 0 0-.048-.0212 4 4 0 0 0-.154-.0621 3 3 0 0 0-.0907-.0323l-.0271-.0093c.0084-.0102.0195-.021.0312-.0325.0253-.0247.054-.0526.0672-.085.0296-.0718.044-.1419.0468-.2254l.0005-.0047a.03.03 0 0 0 .0006-.0054.62.62 0 0 0-.0323-.2184c-.0245-.0736-.0555-.1264-.1006-.1704s-.0901-.0638-.1442-.0657H8.402c-.0507.0001-.0948.0176-.1404.0557-.048.04-.0834.0912-.113.1625-.0294.0712-.0439.1418-.0468.2258q-.0005.0047-.0004.0095a.67.67 0 0 0 .009.1296c-.1038-.0518-.2367-.0896-.3286-.1115a1.1 1.1 0 0 1-.0092-.1235v-.0116c-.0016-.152.0233-.2822.0817-.4144.0585-.1324.1307-.2276.2325-.305.102-.0773.202-.1128.3206-.114h.0056c.116 0 .2151.034.317.108.1034.0751.178.169.2381.3003.059.1281.0873.2533.0901.4017 0 .0039 0 .0072.0011.0112M7.262 4.076a1 1 0 0 1 .0447-.014 1.04 1.04 0 0 0 .0013-.1575v-.001c-.0072-.1314-.0333-.2426-.0823-.3539s-.1075-.1902-.1847-.252c-.0713-.057-.1401-.0826-.2172-.0827l-.0197.0004c-.0852.0044-.1558.0394-.226.109-.0701.0696-.1185.154-.1546.271-.036.1167-.049.2297-.0417.361v.0011c.0078.1314.034.2427.083.3537.0412.0942.0885.1653.149.2222q.0416-.0309.0717-.0527a2 2 0 0 0 .0625-.048l.0325-.0253a.3.3 0 0 1-.0182-.0144c-.0367-.0316-.0651-.0729-.0895-.1307a.59.59 0 0 1-.0446-.1863.58.58 0 0 1 .0123-.1902c.0145-.0613.0345-.1075.065-.1447.0307-.0373.063-.0563.102-.0597a.1.1 0 0 1 .0107-.0003c.0346-.0004.0661.0129.0993.0416.0366.0317.0646.073.0896.1313a.6.6 0 0 1 .044.178c0 .0027 0 .005.0004.0077a.58.58 0 0 1-.0022.1388c.0638-.0422.1297-.0737.2127-.1024" clip-rule="evenodd"/></svg>
